brandFactory_export/2.Regular/Carpeta_2Regular.svg

<?xml version="1.0" encoding="UTF-8"?>
<svg width="24px" height="24px" viewBox="0 0 24 24" version="1.1" xmlns="http://www.w3.org/2000/svg" xmlns:xlink="http://www.w3.org/1999/xlink">
    <title>2.Regular/Carpeta_2Regular</title>
    <g id="Symbols" stroke="none" stroke-width="1" fill="none" fill-rule="evenodd">
        <g id="2.Regular/Carpeta_2Regular" fill="#5CB615" fill-rule="nonzero">
            <path d="M1.75798319,1.54957983 C1.6302521,1.54957983 1.53277311,1.64705882 1.53277311,1.77478992 L1.53277311,17.9495798 C1.53277311,18.0773109 1.6302521,18.1747899 1.75798319,18.1747899 L21.8689076,18.1747899 C21.9932773,18.1747899 22.0941176,18.0739496 22.0941176,17.9495798 L22.0941176,4.41008403 C22.0941176,4.28235294 21.9966387,4.18487395 21.8689076,4.18487395 L11.3176471,4.18487395 C10.8941176,4.18487395 10.5512605,3.84201681 10.5512605,3.41848739 L10.5512605,1.77478992 C10.5512605,1.64705882 10.4537815,1.54957983 10.3260504,1.54957983 L1.75798319,1.54957983 Z M21.8689076,19.7042017 L1.75798319,19.7042017 C0.789915966,19.7042017 0,18.9176471 0,17.9462185 L0,1.77478992 C0,0.806722689 0.786554622,0.0201680672 1.75798319,0.0201680672 L10.3260504,0.0201680672 C11.2941176,0.0201680672 12.0840336,0.806722689 12.0840336,1.77478992 L12.0840336,2.65210084 L21.8689076,2.65210084 C22.8369748,2.65210084 23.6235294,3.43865546 23.6235294,4.40672269 L23.6235294,17.9495798 C23.6235294,18.9176471 22.8369748,19.7042017 21.8689076,19.7042017 Z" id="Carpeta_2Regular"></path>
        </g>
    </g>
</svg>

<svg width="24" height="24" viewBox="0 0 24 24" xmlns="http://www.w3.org/2000/svg"><path d="M1.758 1.55a.221.221 0 00-.225.225V17.95c0 .127.097.225.225.225h20.11c.125 0 .226-.101.226-.225V4.41a.221.221 0 00-.225-.225H11.318a.766.766 0 01-.767-.767V1.775a.221.221 0 00-.225-.225H1.758zm20.11 18.154H1.759A1.76 1.76 0 010 17.946V1.775C0 .807.787.02 1.758.02h8.568c.968 0 1.758.787 1.758 1.755v.877h9.785c.968 0 1.755.787 1.755 1.755V17.95c0 .968-.787 1.754-1.755 1.754z" fill="#5CB615" fill-rule="nonzero"/></svg>
